X:2
T:Humours Of Brooklyn
T:Brick Shithouse, The
M:C|
L:1/8
C:Brad Maloney
R:Reel
Z:Brad Maloney
K:D
DE||=FED=C B,=CDE | (3=FED =cD BDAz | =FED=C B,=CDE | (3=FED E=C ~D3z | {E}=FED=C B,=CDE | (3=FED =cD BDd2 | =FED=C B,=CDE | DFAc ~d3z|
| (3fed fd adfd | ~B3 d BAGA | BF~F2 dFcF|BAFB AFED | (3fed fd adfd |
 ~B3 d BAGE | DFAB =cBAG |(3E=FE D=C[A,3D3]z:||
